svgs/1F9B5.svg

<svg xmlns="http://www.w3.org/2000/svg" version="1.1" xmlns:xlink="http://www.w3.org/1999/xlink" preserveAspectRatio="none" x="0px" y="0px" width="72px" height="72px" viewBox="0 0 72 72">
<defs>
<g id="Layer0_0_MEMBER_0_FILL">
<path fill="#FCC21B" stroke="none" d="
M 59.95 6.1
Q 59.25 1.9 57.45 2.15 57.2 2.15 56.9 2.15 42.2 3.65 33.55 7.15 30.55 8.35 27.95 9.85 25.3 11.3 24.95 14.9 24.8505859375 15.7939453125 24.9 16.6 24.9556640625 17.575 25 18.5 25.2291015625 21.658203125 26.3 25.4 26.2951171875 25.561328125 26.3 25.7 26.1296875 30.287109375 26.2 35 26.3029296875 42.296875 26.35 43.2
L 27.15 51.3
Q 27.6 54.5 24.05 57.85
L 21.2 61.1
Q 19 63.4 17.05 63.65 15.05 63.95 14.4 64.1 13.75 64.3 13.5 64.55 13.25 64.7 12.9 64.85 12.65 64.95 12 65.05 11.35 65.1 11.35 65.95 11.2 66.65 11.95 67.15 12 67.95 13.15 68.5 13.45 69.1 14.65 68.95
L 14.65 69
Q 14.95 69.65 16.2 69.2 16.4 69.95 17.35 69.9 17.8 69.85 18.2 69.65 18.85 69.3 19.75 69.45 19.9 69.45 20.1 69.45 22.05 69.2 24.1 68.4 26.05 67.55 27.7 66.4 30.6 64.3 34.35 63.65 35.85 63.45 37.25 62.8 40 61.95 40.2 59.25 40.25 57.25 39.1 55.85 37.45 54.1 36.9 50.05
L 36.65 48.3
Q 36.05 42.3 38.4 37.1 40.75 31.95 41.8 26.2 42.5 22.2 41.85 19.7 51.1 19.25 58.85 14.9 61 13.85 60.7 11.7
L 59.95 6.1 Z"/>
</g>

<g id="Layer0_0_MEMBER_2_FILL">
<path fill="#E48C15" stroke="none" d="
M 20.05 63.55
Q 19.9421875 63.3958984375 19.75 63.35 15.24453125 62.5373046875 12.3 66.75 12.272265625 66.8123046875 12.25 66.85 12.1962890625 66.955859375 12.2 67.05 12.41484375 67.0427734375 12.65 67 12.691015625 67.287109375 12.8 67.55 13.0013671875 67.4880859375 13.1 67.3 15.6552734375 63.6623046875 19.55 64.35 19.75390625 64.3775390625 19.9 64.25 20.104296875 64.1421875 20.15 63.95 20.177734375 63.74609375 20.05 63.55
M 3.3 60.75
Q 3.4783203125 60.9453125 3.65 61.1 3.65 61.35 3.7 61.55 3.70546875 61.5955078125 3.7 61.65 3.7556640625 61.6369140625 3.8 61.6 4.0076171875 61.5892578125 4.1 61.4 5.153515625 59.80859375 7.45 58.9 7.6666015625 58.844921875 7.75 58.65 7.8419921875 58.4642578125 7.75 58.25 7.6951171875 58.08359375 7.5 58 7.3140625 57.908203125 7.1 57.95 4.5095703125 58.9673828125 3.3 60.75
M 15.75 61.25
Q 15.9580078125 61.201953125 16.05 61 16.1783203125 60.8501953125 16.1 60.65 16.0896484375 60.4421875 15.9 60.3 15.7498046875 60.209375 15.55 60.25 10.4306640625 61.417578125 8.7 65.8
L 8.7 65.85
Q 8.7064453125 65.9001953125 8.7 65.95 8.89375 65.9552734375 9.1 65.95
L 9.15 66.05
Q 9.24453125 66.2705078125 9.4 66.45 9.59453125 66.366796875 9.65 66.15 11.1837890625 62.2791015625 15.75 61.25
M 10.65 60.75
Q 10.8765625 60.718359375 11 60.55 11.1267578125 60.3822265625 11.1 60.15 11.0685546875 59.9732421875 10.9 59.85 10.732421875 59.7232421875 10.5 59.75 7.713671875 60.078125 5.6 64.25 5.8083984375 64.38125 6 64.5 6.069921875 64.7798828125 6.25 65 6.4107421875 64.9416015625 6.5 64.75 8.3083984375 61.1189453125 10.65 60.75 Z"/>
</g>

<path id="Layer0_0_MEMBER_1_1_STROKES" stroke="#E48C15" stroke-width="1" stroke-linejoin="round" stroke-linecap="round" fill="none" d="
M 34.242339324951175 60.2716667175293
Q 37.4215202331543 57.546654510498044 35.434532165527344 54.935184478759766"/>
</defs>

<g id="Layer_1">
<g transform="matrix( 1, 0, 0, 1, 0,0) ">
<use xlink:href="#Layer0_0_MEMBER_0_FILL"/>
</g>

<g transform="matrix( 1.1354217529296875, 0, 0, 1.1354217529296875, 0.35,-9.5) ">
<use xlink:href="#Layer0_0_MEMBER_1_1_STROKES" transform="matrix( 0.8807220458984375, 0, 0, 0.8807220458984375, -0.3,8.35) "/>
</g>

<g transform="matrix( 0.437042236328125, -0.053436279296875, 0.053436279296875, 0.437042236328125, 7.05,40.45) ">
<use xlink:href="#Layer0_0_MEMBER_2_FILL"/>
</g>
</g>
</svg>

<svg xmlns="http://www.w3.org/2000/svg" xmlns:xlink="http://www.w3.org/1999/xlink" preserveAspectRatio="none" viewBox="0 0 72 72"><defs><path id="a" fill="#FCC21B" d="M59.95 6.1q-.7-4.2-2.5-3.95h-.55q-14.7 1.5-23.35 5-3 1.2-5.6 2.7-2.65 1.45-3 5.05-.1.894-.05 1.7.056.975.1 1.9.23 3.158 1.3 6.9-.005.161 0 .3-.17 4.587-.1 9.3.103 7.297.15 8.2l.8 8.1q.45 3.2-3.1 6.55L21.2 61.1q-2.2 2.3-4.15 2.55-2 .3-2.65.45-.65.2-.9.45-.25.15-.6.3-.25.1-.9.2-.65.05-.65.9-.15.7.6 1.2.05.8 1.2 1.35.3.6 1.5.45V69q.3.65 1.55.2.2.75 1.15.7.45-.05.85-.25.65-.35 1.55-.2h.35q1.95-.25 4-1.05 1.95-.85 3.6-2 2.9-2.1 6.65-2.75 1.5-.2 2.9-.85 2.75-.85 2.95-3.55.05-2-1.1-3.4-1.65-1.75-2.2-5.8l-.25-1.75q-.6-6 1.75-11.2 2.35-5.15 3.4-10.9.7-4 .05-6.5 9.25-.45 17-4.8 2.15-1.05 1.85-3.2l-.75-5.6z"/><path id="c" fill="#E48C15" d="M20.05 63.55q-.108-.154-.3-.2-4.505-.813-7.45 3.4-.028.062-.05.1-.054.106-.05.2.215-.007.45-.05.041.287.15.55.201-.062.3-.25 2.555-3.638 6.45-2.95.204.028.35-.1.204-.108.25-.3.028-.204-.1-.4M3.3 60.75q.178.195.35.35 0 .25.05.45.005.046 0 .1.056-.013.1-.05.208-.01.3-.2 1.054-1.591 3.35-2.5.217-.055.3-.25.092-.186 0-.4-.055-.166-.25-.25-.186-.092-.4-.05-2.59 1.017-3.8 2.8m12.45.5q.208-.048.3-.25.128-.15.05-.35-.01-.208-.2-.35-.15-.09-.35-.05-5.12 1.168-6.85 5.55v.05q.006.05 0 .1.194.005.4 0l.05.1q.095.22.25.4.195-.083.25-.3 1.534-3.87 6.1-4.9m-5.1-.5q.227-.032.35-.2.127-.168.1-.4-.031-.177-.2-.3-.168-.127-.4-.1-2.786.328-4.9 4.5l.4.25q.07.28.25.5.16-.058.25-.25 1.808-3.631 4.15-4z"/><path id="b" fill="none" stroke="#E48C15" stroke-linecap="round" stroke-linejoin="round" stroke-width="1" d="M34.242 60.272q3.18-2.725 1.193-5.337"/></defs><use xlink:href="#a"/><use transform="matrix(1 0 0 1 .01 -.02)" xlink:href="#b"/><use transform="matrix(.43704 -.05344 .05344 .43704 7.05 40.45)" xlink:href="#c"/></svg>
